X: 1
T:Moladh Beinn Dobhrain  "(Praise of Ben Doran)"
M:C
L:1/8
Q:80
C:Trad. arr. by Archie Campbell
S:Air
K:HP
[| G2|
{g}A2{GdGe}A3/2{d}B/2{gef}e2{A}e3/2d/2|
{gBd}B4{g}A2{e}G2|  !
{g}A2{GdGe}A3/2B/2{Gdc}d2{gef}e3/2d/2|
{gBd}B3A{g}G4|
{g}A/2{d}A3/2{g}B/2d3/2{gef}e4|  !
{gf}g3/2f/2{gef}e3/2d/2{gef}e4|
{g}e3/2d/2G3/2A/2{GdG}B2{gef}e3/2d/2|
{gBd}B4{g}A2{e}G2|] [|  !
{g}A2{GdGe}A3/2{d}B/2{gef}e2{gf}g3/2f/2|
{gef}e3d{gef}e4|
{gef}e3/2c/2{g}A3/2B/2{GdG}c2{gef}e3/2d/2|  !
{gBd}B3A{g}G4|
{g}A/2{d}A3/2{g}B/2d3/2{gef}e4|
{gf}g3/2f/2{gef}e3/2d/2{gef}e4|  !
{g}e3/2d/2G3/2A/2{GdG}B2{gef}e3/2d/2|
{gBd}B4{g}A2{e}G2|]
